X:1
T:Title
%%score { ( 1 3 ) | ( 2 4 ) }
L:1/8
M:6/8
K:G
V:1 treble nm="Grand Piano"
V:3 treble 
V:2 bass 
V:4 bass 
V:1
 z3 z2[Q:1/4=81] [DB] | [DB]>[CA][B,G] [B,D][B,G][DB] | [Ec]>[Ed][Ec] [CE]2 [Ec] | %3
 [DB]>[Ec][DB] [^CA][CE][CB] | A6 | B>AG D2 B |[M:5/8] [Ec][Ed][Ec] E2 |[M:1/8] E/E/ | %8
[M:13/16] D>EDDG3/2A |[M:5/8] [B,G]-[B,G]- [B,G]3 |[M:1/8] [G,G] | %11
[M:3/4] [Ec]>[Ed] [Ec] [Ec]2 [EG]/[^DA]/ | [DB]2 [DG]/A/ B2 B | d>c B [DG]2 [DA]/[DB]/ | %14
 [DA]2 [DG]/[DB]/ A2 D | B>A G D2 B |[M:5/8] [Ec][Ed][Ec] E2 |[M:1/8] E/E/ |[M:13/16] D>EDDG3/2A | %19
[M:13/8] [B,G]-[B,G]- [B,G]3 z z z z z z z2 |] %20
V:2
 z3 z2 [G,,G,] | [G,,G,]>[G,,D,][G,,D,] [G,,G,][G,,G,][G,,G,] | %2
 [C,G,]>[C,G,][C,G,] [C,G,]2 [C,G,] | [G,,G,]>[G,,G,][G,,G,] [A,,G,][A,,G,][A,,G,] | .[F,D]3 z3 | %5
 [G,D]>[G,C][G,B,] [G,B,]2 [G,D] |[M:5/8] [C,G,][C,G,][C,G,] [C,G,C]2 |[M:1/8] C/ z/ | %8
[M:13/16] [D,G,B,]>[D,G,C][D,G,B,][D,G,B,][D,B,]3/2[D,C] |[M:5/8] [G,,D,]-[G,,D,]- [G,,D,]3 | %10
[M:1/8] z |[M:3/4] [C,G,]>[C,G,] [C,G,] [C,G,]2 [C,G,]/[C,G,]/ | %12
 [G,,G,]2 [B,,G,]/[D,F,D]/ [G,D]2 [G,D] | [G,B,D]>[G,A,D] [G,D] [B,,G,]2 [A,,F,]/[G,,G,]/ | %14
 [D,F,]2 [B,,G,]/[G,,G,]/ [D,F,D]2 [D,F,] | [G,D]>[G,C] [G,B,] [G,B,]2 [G,D] | %16
[M:5/8] [C,G,][C,G,][C,G,] [C,G,C]2 |[M:1/8] C/ z/ | %18
[M:13/16] [D,G,B,]>[D,G,C][D,G,B,][D,G,B,][D,B,]3/2[D,C] | %19
[M:13/8] [G,,D,]-[G,,D,]- [G,,D,]3 z z z z z z z2 |] %20
V:3
 x6 | x6 | x6 | x6 | z FE D2 D | x6 |[M:5/8] x5 |[M:1/8] x |[M:13/16] x13/2 |[M:5/8] x5 | %10
[M:1/8] x |[M:3/4] x6 | x6 | x6 | x6 | x6 |[M:5/8] x5 |[M:1/8] x |[M:13/16] x13/2 |[M:13/8] x13 |] %20
V:4
 x6 | x6 | x6 | x6 | D,-[D,-A,][D,-G,] [D,F,]2 [D,F,] | x6 |[M:5/8] x5 |[M:1/8] [C,G,]/-[C,G,C]/ | %8
[M:13/16] x13/2 |[M:5/8] x5 |[M:1/8] x |[M:3/4] x6 | x6 | x6 | x6 | x6 |[M:5/8] x5 | %17
[M:1/8] [C,G,]/-[C,G,C]/ |[M:13/16] x13/2 |[M:13/8] x13 |] %20

